X:1
T:Lobt Gott, ihr Christen, allzugleich - BuxWV 202
T:Lobt Gott, ihr Christen, allzugleich - BuxWV 202
T:Dieterich Buxtehude (c. 1637 - 1707
T:www.gardane.info
T:www.gardane.info
C:Dieterich Buxtehude (c. 1637 - 1707
Z:www.gardane.info
%%score 1 2 3 ( 4 5 )
L:1/8
Q:1/4=71
M:4/4
K:F
V:1 treble+8 nm="Sopraan-blokfluit" snm="S. Blf."
V:2 treble nm="Alt-blokfluit" snm="A. Blf."
V:3 treble nm="Tenor-blokfluit" snm="T. Blf."
V:4 bass nm="Viola da gamba" snm="Vla. d. g."
V:5 bass 
V:1
"^Adagio" z2 | z8 | z8 | z8 | z8 | z4 z3/2 E/ F/G/A/B/ | c2 c2 c2- c/d/B/c/ | d_e/d/ Pc>B A4 | z8 | %9
 z4 z2 A2 | =B2 c2 Pd7/2 B/ | c2 CD E2 F2- | FF E>D EcFG | A z z2 z2 AB | c2 c2 c2 AB | %15
 cd/c/ B>A G4 | z2 A2 B3 G | ABcd c2 c>d | B2 A2 G2 G>A | F>E F>G A>B c2 | B>c A>B GG PG>F | %21
 F4 z/ f/g/f/ e/g/f/e/ | !fermata!f8 |] %23
V:2
 z2 | z8 | z8 | z8 | z8 | z8 | z2 f2 g2 f2- | f2 e2 f2 c2 | d2 e2 fedg | e2 f2 g2 f2 | g4 a2 Pg>f | %11
 e2 z2 z2 c2- | c7/2 =B/ c2 z2 | z3/2 d/ Pc>B c2 f2- | f2 e2 f4- | f2 gf e2 ef | g2 z2 z4 | %17
 z4 z2 z3/2 f/ | de f4 e2 | d>c d>e f>g a2 | g2 f2 d2 c2- | cdcB c2 B2 | !fermata!c8 |] %23
V:3
 F2 | c2 c2 c2 B2 | d2 Pc>B A3 B/c/ | d3 A c2 B>A | GA B2- BGAB | G3 A/B/ A4 | z2 A2 G2 A2 | %7
 BA G2 F2 A2 | =B2 c4 B2 | c2 A2 G2 z c | d2 e2 fe d2 | c2 EF G2 (A2 | A)A G>F G2 z2 | %13
 z3/2 B/ PA>G A2 c2- | c2 G2 A2 FG | A2 B2 c4 | de f2- fd e2 | fgab a2 A2 | B2 c2 d2 e2 | %19
 z4 z2 f2 | d2 c2 B4 | ABAG A2 G2 | !fermata!A8 |] %23
V:4
 z2 | z8 | z2 C,2 F,2 F,2 | F,2 F,2 A,2 G,>F, | E,2 D,2 E,2 F,2- | F,2 E,2 F,4 | z2 F,2 E,2 F,2 | %7
 B,,2 C,2 A,,4 | z8 | z2 D,2 E,2 F,2- | F,2 E,2 D,2 G,2 | C,6 A,,B,, | C,2 C,2 C,2 D,E, | %13
 F,2 F,2 F,2 F,,G,, | A,,B,, C,2 F,,4 | z4 z2 C2 | B,2 A,2 G,2 G,2 | F,4 z2 F,2 | G,2 A,2 B,2 C2 | %19
 z4 z2 [F,,A,,]2 | [G,,B,,]2 F,4 [C,E,]2 | [F,,F,]8- | !fermata![F,,F,]8 |] %23
V:5
 x2 | x8 | x8 | x8 | x8 | x8 | x8 | x8 | x8 | x8 | x8 | x8 | x8 | x8 | x8 | x8 | x8 | x8 | x8 | %19
 x8 | x2 A,,2 B,,2 x2 | x8 | x8 |] %23

